X: 20573
T: JIM BROWN
C:
%R: reel
B: Elias Howe "The Musician's Companion" 1843 p.57 #3
S: http://imslp.org/wiki/The_Musician's_Companion_(Howe,_Elias)
Z: 2015 John Chambers <jc:trillian.mit.edu>
M: 2/4
L: 1/16
K: G
% - - - - - - - - - - - - - - - - - - - - - - - - -
GA | BGGG BGGG | d2AF D3D | DEFG ABcA | BGAF G2 ::\
D2 | GBdf g2gg | gdBG D3D | DEFG ABcA | BGAF G2 :|
% - - - - - - - - - - - - - - - - - - - - - - - - -

%%sep 1 1 500

